X:1
T:Gerald, CMD
T:Gerald, CMD
T:Louis Spohr, 1834, adapted by J. Stimpson
T:Public Domain Courtesy of the Cyber Hymnal™
C:Louis Spohr, 1834, adapted by J. Stimpson
Z:Public Domain
Z:Courtesy of the Cyber Hymnal™
%%score ( 1 2 ) ( 3 4 )
L:1/8
Q:1/4=110
M:6/8
K:D
V:1 treble 
V:2 treble 
V:3 bass 
V:4 bass 
V:1
 [FA] | [FA]2 [EG] [DF]2 [Fd] | [Ac]2 [GB] [GB]2 [GB] | [FA]2 [DF] [FA]2 [EG] | [DF]3- [DF]2 [FA] | %5
 [FA]2 [EG] [DF]2 [Fd] | [Ac]2 [GB] [GB]2 [GB] | [FA]2 D [DF]2 [CE] | D3- D2 [DF] | %9
 [DF]2 [CE] ([CE][EG])[GB] | [GB]2 [FA] [FA]2 [FA] | [EA]2 (^G/A/) [Ac]2 [GB] | [EA]3- [EA]2 [FA] | %13
 [FA]2 [EG] [DF]2 [Fd] | [Ac]2 [GB] [GB]2 [GB] | [FA]2 D [DF]2 [CE] | D3- D2 |] %17
V:2
 x | x6 | x6 | x6 | x6 | x6 | x6 | x2 D x3 | D3- D2 x | x6 | x6 | x2 E x3 | x6 | x6 | x6 | %15
 x2 D x3 | D3- D2 |] %17
V:3
 [D,D] | [D,D]2 [D,A,] [D,A,]2 [D,D] | [G,D]2 [G,D] [G,D]2 [G,D] | [A,D]2 A, [A,,A,]2 [A,,A,] | %4
 [F,A,]3- [F,A,]2 [D,D] | [D,D]2 [D,A,] [D,A,]2 [D,D] | [G,C]2 [G,D] [G,D]2 [G,D] | %7
 [A,D]2 [A,,F,] [A,,A,]2 [A,,G,] | [D,F,]3- [D,F,]2 [D,A,] | [A,,A,]2 [A,,A,] [A,,A,]2 [A,,C] | %10
 [D,D]2 [D,D] [D,D]2 [D,D] | [E,C]2 (B,/C/) [E,E]2 [E,D] | [A,,C]3- [A,,C]2 [D,D] | %13
 [D,D]2 [D,A,] [D,A,]2 [D,D] | [G,D]2 [G,D] [G,D]2 [G,D] | [A,D]2 [A,,F,] [A,,A,]2 [A,,G,] | %16
 F,3- F,2 |] %17
V:4
 x | x6 | x6 | x2 A, x3 | x6 | x6 | x6 | x6 | x6 | x6 | x6 | x2 E, x3 | x6 | x6 | x6 | x6 | %16
 F,3- F,2 |] %17

